packages/ffe-icons/icons/filled/sm/tibia.svg

<svg xmlns="http://www.w3.org/2000/svg" height="20" viewBox="0 -960 960 960" width="20"><path d="m380.001-606.462-80.769-80.77q-12.308-13.307-19.769-29.269-7.462-15.961-7.462-35.499 0-38.597 26.492-65.298 26.491-26.701 64.507-26.701h234q37.606 0 63.802 26.559 26.197 26.56 26.197 64.013 0 19.196-7.27 36.349-7.269 17.154-21.576 31.846l-78.154 78.77v251.54l81.154 79.769q13.923 12.308 20.884 29.359 6.962 17.052 6.962 35.794 0 39.538-27.3 66.768-27.299 27.231-67.023 27.231-18.83 0-36.013-7.236-17.183-7.235-30.74-20.367-9.384-9.936-21.73-15.167-12.347-5.23-26.193-5.23-13.846 0-26.001 5.538-12.154 5.539-21.846 15.231-13.308 12.952-30.359 20.091-17.052 7.14-35.794 7.14-39.538 0-66.076-27.3-26.538-27.299-26.923-67.023 0-18.83 6.462-35.175 6.461-16.346 19.769-29.269l80.769-80.154v-251.54Z"/></svg>

<svg xmlns="http://www.w3.org/2000/svg" height="20" viewBox="0 -960 960 960" width="20"><path d="m380-606.46-80.77-80.77q-12.31-13.31-19.77-29.27Q272-732.46 272-752q0-38.6 26.49-65.3Q324.98-844 363-844h234q37.61 0 63.8 26.56 26.2 26.56 26.2 64.01 0 19.2-7.27 36.35-7.27 17.16-21.58 31.85L580-606.46v251.54l81.15 79.77q13.93 12.3 20.89 29.36Q689-228.74 689-210q0 39.54-27.3 66.77Q634.4-116 594.68-116q-18.83 0-36.02-7.24-17.18-7.23-30.74-20.36-9.38-9.94-21.73-15.17Q493.85-164 480-164q-13.85 0-26 5.54t-21.85 15.23q-13.3 12.95-30.36 20.09Q384.74-116 366-116q-39.54 0-66.08-27.3-26.53-27.3-26.92-67.02 0-18.83 6.46-35.18t19.77-29.27L380-354.92v-251.54Z"/></svg>
